!!!!SEGMENT: pl-wnifc--6432-n--010_nowakowski-jozef--walc-no-10.krn
!!!cenid: 18xx:3933
!!!COM: Nowakowski, Józef
!!!COM-rismID: pe175316
!!!CDT: 1880/09/16-1865/08/27
!!!CNT: Polish
!!!OTL: Walc No. 10
!!!PDT: 1825
!!!AGN:
!!!SMS-siglum: PL-Wnifc
!!!SMS-shelfmark: 6432/n
!!!SMS-shelfwork: 010 W
!!!SMS-variant:
!!!SMS-altvar:
!!!NIFC-rismSourceID: 1001134754
!!!NIFC-islandoraID: nifc:212700
!!!URL-pdf-islandora: https://repozytorium.nifc.pl/islandora/object/nifc%3A212700/datastream/PDF/view
!!!URL-scan: https://polish.musicsources.pl/pl/lokalizacje/galeria/druki-muzyczne/16851 @EN{Scan on Polish Music Sources Website} @PL{Skany w portalu Dziedzictwo Muzyki Polskiej w otwartym dostępie}
!!!ONB-nifc: UWAGA: w źródle 5 Mazurów (001-005), 4 Anglezy (006-009), 2 Walce (010-011) i Fantaisie Valse (012).
!!!AIN: 2 piano
!!!key: F
**kern	**kern	**dynam
*part2	*part1	*part1
*staff2	*staff1	*
*I"Piano	*I"Piano	*
*I'P-no	*I'P-no	*
*Ipiano	*Ipiano	*
*ICklav	*ICklav	*
*clefF4	*clefG2	*
*k[b-]	*k[b-]	*
*F:	*F:	*
*M3/4	*M3/4	*
4r	(8cc\L	p
.	8ee\J)	.
=1	=1	=1
4FF/	(8ff\L	.
.	8gg\	.
4A\ 4c 4f	8aa\	.
.	8ee\	.
4B-\ 4d 4f	8ff\	.
.	8dd\J	.
=2	=2	=2
4FF/	(8dd\L)	.
.	(16qqcc/LL	.
.	16qqdd/JJ)	.
.	8cc\	.
4A\ 4c 4f	8bn\	.
.	8cc\	.
4A\ 4c 4f	8a\	.
.	8ff\J)	.
=3	=3	=3
4C/	(8ff\L	.
.	(16qqee/LL	.
.	16qqff/JJ)	.
.	8ee\	.
4G\ 4B- 4c 4e	8dd#X\	.
.	8ee\	.
4G\ 4B- 4c 4e	8cc\	.
.	8ee\J)	.
=4	=4	=4
4F\	(8gg\L	.
.	(16qqff/LL	.
.	16qqgg/JJ)	.
.	8ff\	.
4A\ 4c 4f	8ee\	.
.	8ff\	.
4A\ 4c 4f	8cc\	.
.	8ccc\J)	.
=5	=5	=5
!	!	!LO:DY:b:t=for
4FF/	8ff\L	f
.	8gg\	.
8F\L 8A 8c	8aa\	.
8f\	8ee\	.
8F\ 8B- 8d	8ff\	.
8f\J	8dd\J	.
=6	=6	=6
8F\L 8A 8c	8dd\L	.
.	(16qqcc/LL	.
.	16qqdd/JJ)	.
8f\	(8cc\	.
8F\ 8A 8c	8bn\	.
8f\	8cc\)	.
8F\ 8A 8c	8a\	.
8f\J	8ff\J	.
=7	=7	=7
8C\L 8G 8B-	8ff\L	.
.	(16qqee/LL	.
.	16qqff/JJ)	.
8c\	8ee\	.
8E\ 8G 8B-	8dd#X\	.
8c\	8ee\	.
8C\ 8G 8B-	8dddn\	.
8c\J	8ccc\J	.
!LO:LB:g=original	!LO:LB:g=original	!
=8	=8	=8
4F\ 4A 4c	4ff\	.
4FF/	4r	.
==9	==9	==9
4r	(8cc\L	.
.	8ff\J)	.
=10	=10	=10
4C/	8ff\L	p
.	(16qqee/LL	.
.	16qqff/JJ)	.
.	8ee\	.
4G\ 4B- 4c	8dd#X\	.
.	8ee\	.
4G\ 4B- 4c	8cc\	.
.	8ee\J	.
=11	=11	=11
4C/	8gg\L	.
.	(16qqff/LL	.
.	16qqgg/JJ)	.
.	8ff\	.
4F\ 4A 4c	8ee\	.
.	8ff\	.
4F\ 4A 4c	8cc\	.
.	8ff\J	.
=12	=12	=12
4C/	8aa\L	.
.	8ggM\	.
4E\ 4B- 4c	8ff#X\	.
.	8gg\	.
4E\ 4B- 4c	8cc\	.
.	8gg\J	.
=13	=13	=13
4FF/	8bb-\L	.
.	8aam\	.
4A\ 4c 4f	8gg#X\	.
.	8aa\	.
4A\ 4c 4f	8fff\	.
.	8cc\J	.
=14	=14	=14
8F\L 8A 8c	8ff\L	f
8f\	8gg\	.
8F\ 8A 8c	8aa\	.
8f\	8ee\	.
8F\ 8B- 8d	8ff\	.
8f\J	8dd\J	.
=15	=15	=15
*tremolo	*	*
8F\L 8A 8c	(8dd\L	.
8f\	8ccM\	.
8F\ 8A 8c	8bn\	.
8f\	8cc\	.
8F\ 8A 8c	8a\	.
8f\J	8ff\J)	.
*Xtremolo	*	*
!LO:LB:g=original	!LO:LB:g=original	!
=16	=16	=16
*^	*	*
8B-/L	4C\ 4G	8ff\L	.
8c/	.	8ee\	.
8B-/	4E\ 4G	8dd#X\	.
8c/	.	8ee\	.
8B-/	4C\ 4G	8dddn\	.
8c/J	.	8ccc\J	.
*v	*v	*	*
=17	=17	=17
4F\ 4A	4ff\	.
4FF/	4r	.
==18	==18	==18
!	!LO:TX:b:t=dolce & piano.	!
4r	8dd-X\L	.
.	8ee-X\J	.
=19	=19	=19
4BB-/	(12ff\L	.
.	12gg\	.
.	12ff\J)	.
4F\ 4B- 4d	(8een\L	.
.	8ff\	.
4F\ 4B- 4d	8bb-\	.
.	8ddd\J)	.
=20	=20	=20
.	8qff/	.
4BB-/	2fff\	.
4F\ 4B- 4d	.	.
4F\ 4B- 4d	8eee-X\L	.
.	8ddd\J	.
=21	=21	=21
4FF/	(8ddd\L	.
.	8cccM\	.
4F\ 4A 4e	8bbn\	.
.	8ccc\	.
4F\ 4c 4e	8fff\	.
.	8aa\J)	.
=22	=22	=22
4BB-/	(8bb-\L	.
.	8ddd\)	.
4F\ 4B- 4d	(8aa\	.
.	8bb-\)	.
4F\ 4B- 4d	(8dd\	.
.	8ee\J)	.
!LO:LB:g=original	!LO:LB:g=original	!
=23	=23	=23
4BB-/	(12ff\L	.
.	12gg\	.
.	12ff\J)	.
4F\ 4B- 4d	8een\L	.
.	8ff\	.
4F\ 4B- 4d	8bb-\	.
.	8ddd\J	.
=24	=24	=24
.	(8qff/	<
4BB-/	(2fff\)	.
4G\ 4B- 4d	.	.
4G\ 4B- 4d	8eeen\L	.
.	8ddd\J)	[[
=25	=25	=25
!	!	!LO:DY:b:t=for
2C\ 2A 2c	(8ccc\L	f
.	8fff\	.
.	8aa\	.
.	8ddd\	.
4C\ 4G 4B-	8ccc\	.
.	8een\J)	.
=26	=26	=26
4F\ 4A	4ff\	.
4FF/	4r	.
4r	(8dd\L	p
.	8ee\J)	.
=27	=27	=27
4BB-/	(12ff\L	.
.	12gg\	.
.	12ff\J)	.
4F\ 4B- 4d	8een\L	.
.	8ff\J	.
4F\ 4B- 4d	8bb-\L	.
.	8ddd\J	.
=28	=28	=28
.	8qff/	.
4BB-/	(2fff\	.
4F\ 4B- 4d	.	.
4F\ 4B- 4d	8eee\L	.
.	8ddd\J)	.
=29	=29	=29
4FF/	(8ddd\L	.
.	8ccc\	.
4F\ 4A 4e	8bbn\	.
.	8ccc\	.
4F\ 4A 4e	8fff\	.
.	8aa\J)	.
!LO:LB:g=original	!LO:LB:g=original	!
=30	=30	=30
4BB-/	(8bb-\L	.
.	8ddd\)	.
4F\ 4B- 4d	(8ff\	.
.	8bb-\)	.
4F\ 4B- 4d	(8dd\	.
.	8ee\J)	.
=31	=31	=31
4BB-/	(12ff\L	<
.	12gg\	.
.	12ff\J)	.
4F\ 4B- 4d	(8een\L	.
.	8ff\	.
4F\ 4B- 4d	8bb-\	.
.	8ddd\J)	[
=32	=32	=32
*^	*	*
!	!	!	!LO:DY:b:t=for
4E/yy	2.E\	(8ddd\L	f
.	.	8fff\	.
4G\ 4c	.	8eee\	.
.	.	8gg\	.
4G\ 4c	.	8ddd\	.
.	.	8ccc\J)	.
=33	=33	=33	=33
4F/yy	2.F\	(8bb-\L	.
.	.	8aa\	.
4A\ 4c 4e	.	8ggg\	.
.	.	8fff\	.
4A\ 4c 4e	.	8ccc\	.
.	.	8ddd\J)	.
*v	*v	*	*
=34	=34	=34
4B-\ 4d	4bb-\	.
4BB-/	4r	.
==	==	==
*-	*-	*-
!!!system-decoration: [(s1,s2)]
!!!ENC: Berenika Jozajtis
!!!END: 2022-07-27
!!!ENC: Julita Ruszuk
!!!END: 2022-08-24
!!!YEC: Copyright 2022 Narodowy Instytut Fryderyka Chopina (https://polishscores.org)
!!!YEM: Licence CC BY 4.0 (https://creativecommons.org/licenses/by/4.0)
